src/icons/svg/ChatUnavailable.svg

<!-- Generated by IcoMoon.io -->
<svg version="1.1" xmlns="http://www.w3.org/2000/svg" width="24" height="24" viewBox="0 0 24 24">
<title>chat-unavailable</title>
<path fill="#444" d="M6 7.503c-0.828 0-1.5 0.671-1.5 1.5s0.671 1.5 1.5 1.5c0.828 0 1.5-0.671 1.5-1.5s-0.672-1.5-1.5-1.5zM12 7.503c-0.828 0-1.5 0.671-1.5 1.5s0.671 1.5 1.5 1.5 1.5-0.671 1.5-1.5-0.67-1.5-1.5-1.5zM18 7.503c-0.83 0-1.5 0.671-1.5 1.5s0.67 1.5 1.5 1.5 1.5-0.671 1.5-1.5-0.67-1.5-1.5-1.5zM19.5 0.003h-15c-2.486 0-4.5 2.014-4.5 4.5v9.75c0 2.484 2.014 3.75 4.5 3.75h9l6 6v-6c2.484 0 4.5-1.266 4.5-3.75v-9.75c0-2.486-2.016-4.5-4.5-4.5zM22.5 14.253c0 1.656-1.343 2.25-3 2.25h-1.5v3.75l-3.75-3.75h-9.75c-1.656 0-3-0.594-3-2.25v-9.75c0-1.657 1.344-3 3-3h15c1.657 0 3 1.343 3 3v9.75z"></path>
</svg>

<svg width="24" height="24" viewBox="0 0 24 24" fill="none" xmlns="http://www.w3.org/2000/svg">
<g clip-path="url(#clip0)">
<path d="M6 7.503C5.172 7.503 4.5 8.174 4.5 9.003C4.5 9.832 5.171 10.503 6 10.503C6.828 10.503 7.5 9.832 7.5 9.003C7.5 8.174 6.828 7.503 6 7.503ZM12 7.503C11.172 7.503 10.5 8.174 10.5 9.003C10.5 9.832 11.171 10.503 12 10.503C12.829 10.503 13.5 9.832 13.5 9.003C13.5 8.174 12.83 7.503 12 7.503ZM18 7.503C17.17 7.503 16.5 8.174 16.5 9.003C16.5 9.832 17.17 10.503 18 10.503C18.83 10.503 19.5 9.832 19.5 9.003C19.5 8.174 18.83 7.503 18 7.503ZM19.5 0.00299835H4.5C2.014 0.00299835 0 2.017 0 4.503V14.253C0 16.737 2.014 18.003 4.5 18.003H13.5L19.5 24.003V18.003C21.984 18.003 24 16.737 24 14.253V4.503C24 2.017 21.984 0.00299835 19.5 0.00299835V0.00299835ZM22.5 14.253C22.5 15.909 21.157 16.503 19.5 16.503H18V20.253L14.25 16.503H4.5C2.844 16.503 1.5 15.909 1.5 14.253V4.503C1.5 2.846 2.844 1.503 4.5 1.503H19.5C21.157 1.503 22.5 2.846 22.5 4.503V14.253Z" fill="#1C2125"/>
</g>
<defs>
<clipPath id="clip0">
<rect width="24" height="24" fill="white"/>
</clipPath>
</defs>
</svg>
